src/desktoptheme/breeze/icons/preferences.svg

<svg id="svg" version="1.1" viewBox="0 0 22 22" xmlns="http://www.w3.org/2000/svg">
    <defs id="defs81">
        <style id="current-color-scheme" type="text/css">.ColorScheme-Text {
            color:#232629;
        }
        .ColorScheme-Background {
            color:#eff0f1;
        }
        .ColorScheme-ViewBackground {
            color:#fcfcfc;
        }
        .ColorScheme-ButtonFocus {
            color:#3daee9;
        }
        .ColorScheme-PositiveText {
            color:#27ae60;
        }
        .ColorScheme-NeutralText {
            color:#f67400;
        }
        .ColorScheme-NegativeText {
            color:#da4453;
        }</style>
    </defs>
    <g id="22-22-preferences-desktop-display-randr" transform="translate(-1,-1)">
        <rect id="rect3832" x="1" y="1" width="22" height="22" fill-opacity="0"/>
        <path id="rect7235" class="ColorScheme-Text" d="m7 19h10v1h-10zm3-2h4v2h-4zm-6-13v13h16v-13zm1 1h14v9h-14z" fill="currentColor"/>
        <path id="rect3018" class="ColorScheme-Text" d="m6 9 4 4h-4z" fill="currentColor"/>
        <path id="path3028" class="ColorScheme-Text" d="m18 10-4-4h4z" fill="currentColor"/>
    </g>
    <g id="preferences-desktop-notification" transform="translate(-1,39)">
        <rect id="rect3068" x="1" y="1" width="22" height="22" fill-opacity="0"/>
        <rect id="rect4130-82-0" x="4.000011" y="4" width="15.999978" height="15.999987" ry="7.999989" fill="#3daee9"/>
        <path id="rect4142-6" d="m11.202644 7.1999826-0.0026 7.2000124h1.599998l0.0026-7.2000124zm0.799999 7.9999894c-0.441822 0-0.799999 0.358171-0.799999 0.799999 0 0.441827 0.358177 0.799999 0.799999 0.799999s0.799999-0.358172 0.799999-0.799999c0-0.441828-0.358177-0.799999-0.799999-0.799999z" fill="#fcfcfc"/>
    </g>
    <g id="22-22-preferences-system-bluetooth" transform="translate(-22,94)">
        <rect id="rect4645" x="66" width="22" height="22" fill="none"/>
        <path id="rect4163-9" class="ColorScheme-Text" d="m76.998047 3v7.041013l-3.292969-3.2929692-2e-3 0.00195c-0.355749-0.3559538-0.996047-0.9960876-0.996047-0.9960876l-0.707031 0.7070313 4.544922 4.5410155-4.544922 4.541016 0.707031 0.707031s0.640351-0.640094 0.996094-0.996094h2e-3l3.294875-3.292968v7.039062h1l4-4-4-4 4-4-4-4zm1.001953 1.4160156 2.585938 2.5859375-2.585938 2.5859375zm0 8.0000004 2.585938 2.585937-2.585938 2.585938z" fill="currentColor"/>
    </g>
    <g id="22-22-preferences-system-bluetooth-activated" transform="translate(0,94)">
        <rect id="rect4674" x="66" width="22" height="22" fill="none"/>
        <path id="path4676" class="ColorScheme-Text" d="m76.998047 3v7.041013l-3.292969-3.2929692-2e-3 0.00195c-0.355749-0.3559538-0.996047-0.9960876-0.996047-0.9960876l-0.707031 0.7070313 4.544922 4.5410155-4.544922 4.541016 0.707031 0.707031s0.640351-0.640094 0.996094-0.996094h2e-3l3.294875-3.292968v7.039062h1l4-4-4-4 4-4-4-4h-1.001953zm1.001953 1.4160156 2.585938 2.5859375-2.585938 2.5859375v-5.171875zm-11 5.5839844a1 1 0 0 0-1 1 1 1 0 0 0 1 1 1 1 0 0 0 1-1 1 1 0 0 0-1-1zm4 0a1 1 0 0 0-1 1 1 1 0 0 0 1 1 1 1 0 0 0 1-1 1 1 0 0 0-1-1zm12 0a1 1 0 0 0-1 1 1 1 0 0 0 1 1 1 1 0 0 0 1-1 1 1 0 0 0-1-1zm4 0a1 1 0 0 0-1 1 1 1 0 0 0 1 1 1 1 0 0 0 1-1 1 1 0 0 0-1-1zm-9 2.416016 2.585938 2.585937-2.585938 2.585938v-5.171875z" fill="currentColor"/>
    </g>
    <g id="22-22-preferences-system-bluetooth-inactive" transform="translate(-44,94)">
        <rect id="rect4162" x="66" width="22" height="22" fill="none"/>
        <path id="path4164" class="ColorScheme-Text" d="m76.998047 3v7.041013l-3.292969-3.2929692-2e-3 0.00195c-0.355749-0.3559538-0.996047-0.9960876-0.996047-0.9960876l-0.707031 0.7070313 4.544922 4.5410155-4.544922 4.541016 0.707031 0.707031s0.640351-0.640094 0.996094-0.996094h2e-3l3.294875-3.292968v7.039062h1l4-4-4-4 4-4-4-4zm1.001953 1.4160156 2.585938 2.5859375-2.585938 2.5859375zm0 8.0000004 2.585938 2.585937-2.585938 2.585938z" fill="currentColor" opacity=".5"/>
    </g>
    <g id="preferences-system-bluetooth" transform="translate(44,94)">
        <rect id="rect4168" x="-5" y="22" width="32" height="32" fill="none"/>
        <path id="rect4331" class="ColorScheme-Text" d="m 11,26 0,0.410156 0,10.587891 L 5.0019531,31 4.296875,31.705078 10.589844,38 4.296875,44.294922 5.0019531,45 11,39.001953 11,50 12,50 12.002,50 18,44.001953 18,44 18,43.998047 12.001953,38 18,32.001953 18,32 18,31.998047 12.001953,26 12,26 11,26 z M 12,27.410156 16.587891,32 12,36.589844 12,27.410156 z m 0,12 L 16.587891,44 12,48.589844 12,39.410156 z" fill="currentColor"/>
    </g>
    <g id="preferences-system-bluetooth-activated" transform="translate(44,94)">
        <rect id="rect4422" x="27" y="22" width="32" height="32" fill="none"/>
        <path id="path4424" class="ColorScheme-Text" d="m43 26v10.998047l-5.998047-5.998047-0.705078 0.705078 6.292969 6.294922-6.292969 6.294922 0.705078 0.705078 5.998047-5.998047v10.998047h1.002l5.998-5.998047v-0.003906l-5.998047-5.998047 5.998047-5.998047v-0.003906l-5.998047-5.998047h-1.001953zm1 1.410156 4.587891 4.589844-4.587891 4.589844v-9.179688zm-14 9.589844a1 1 0 0 0-1 1 1 1 0 0 0 1 1 1 1 0 0 0 1-1 1 1 0 0 0-1-1zm6 0a1 1 0 0 0-1 1 1 1 0 0 0 1 1 1 1 0 0 0 1-1 1 1 0 0 0-1-1zm14 0a1 1 0 0 0-1 1 1 1 0 0 0 1 1 1 1 0 0 0 1-1 1 1 0 0 0-1-1zm6 0a1 1 0 0 0-1 1 1 1 0 0 0 1 1 1 1 0 0 0 1-1 1 1 0 0 0-1-1zm-12 2.410156 4.587891 4.589844-4.587891 4.589844v-9.179688z" fill="currentColor"/>
    </g>
    <g id="preferences-system-bluetooth-inactive" transform="translate(44,94)">
        <rect id="rect4426" x="-37" y="22" width="32" height="32" fill="none"/>
        <path id="path4428" class="ColorScheme-Text" d="m-21 26v10.998047l-5.998047-5.998047-0.705078 0.705078 6.292969 6.294922-6.292969 6.294922 0.705078 0.705078 5.998047-5.998047v10.998047h1.002l5.998-5.998047v-4e-3l-5.998047-5.997953 5.998047-5.998047v-0.003953l-5.998047-5.998h-1.001953zm1 1.410156 4.587891 4.589844-4.587891 4.589844v-9.179688zm0 12 4.587891 4.589844-4.587891 4.589844v-9.179688z" fill="currentColor" opacity=".5"/>
    </g>
    <g id="preferences-system-bluetooth-battery" transform="translate(44,126)">
        <rect id="rect4168-3" x="-5" y="22" width="32" height="32" fill="none"/>
        <path id="rect4331-5" class="ColorScheme-Text" d="m 11,26 v 0.410156 10.587891 L 5.0019531,31 4.296875,31.705078 10.589844,38 4.296875,44.294922 5.0019531,45 11,39.001953 V 50 h 1 0.002 L 18,44.001953 V 44 43.998 L 12.001953,38 18,32.001953 V 32 31.998 L 12.001953,26 H 12 Z M 12,27.410156 16.587891,32 12,36.589844 Z m 0,12 L 16.587891,44 12,48.589844 Z" fill="currentColor"/>
    </g>
    <g id="preferences-desktop-display-randr">
        <rect id="rect3832-6" x="26" y="-10" width="32" height="32" fill-opacity="0"/>
        <path id="rect7235-7" class="ColorScheme-Text" d="m35.011249 15h11.977502l0.011249 2h-11.977502zm3.988751-2h4v2h-4zm-9-18v18h22v-18zm1 1h20v14h-20z" fill="currentColor"/>
        <path id="rect3018-5" class="ColorScheme-Text" d="m32 4 5 5h-5z" fill="currentColor"/>
        <path id="path3028-3" class="ColorScheme-Text" d="m50 2-5-5h5z" fill="currentColor"/>
    </g>
</svg>

<?xml version="1.0" encoding="UTF-8" standalone="no"?>
<svg
   xmlns:dc="http://purl.org/dc/elements/1.1/"
   xmlns:cc="http://creativecommons.org/ns#"
   xmlns:rdf="http://www.w3.org/1999/02/22-rdf-syntax-ns#"
   xmlns:svg="http://www.w3.org/2000/svg"
   xmlns="http://www.w3.org/2000/svg"
   xmlns:sodipodi="http://sodipodi.sourceforge.net/DTD/sodipodi-0.dtd"
   xmlns:inkscape="http://www.inkscape.org/namespaces/inkscape"
   viewBox="0 0 22 22"
   id="svg"
   version="1.1"
   inkscape:version="0.92.3 (2405546, 2018-03-11)"
   width="100%"
   height="100%"
   sodipodi:docname="preferences.svgz">
  <defs
     id="defs81">
    <style
       id="current-color-scheme"
       type="text/css">
      .ColorScheme-Text {
        color:#7B7C7E;
      }
      .ColorScheme-Background{
        color:#EFF0F1;
      }
      .ColorScheme-Highlight{
        color:#3DAEE6;
      }
      .ColorScheme-ViewText {
        color:#7B7C7E;
      }
      .ColorScheme-ViewBackground{
        color:#FCFCFC;
      }
      .ColorScheme-ViewHover {
        color:#3DAEE6;
      }
      .ColorScheme-ViewFocus{
        color:#1E92FF;
      }
      .ColorScheme-ButtonText {
        color:#7B7C7E;
      }
      .ColorScheme-ButtonBackground{
        color:#EFF0F1;
      }
      .ColorScheme-ButtonHover {
        color:#3DAEE6;
      }
      .ColorScheme-ButtonFocus{
        color:#1E92FF;
      }
</style>
    <style
       id="current-color-scheme-5"
       type="text/css">
      .ColorScheme-Text {
        color:#31363b;
      }
      .ColorScheme-Background {
        color:#eff0f1;
      }
      .ColorScheme-Highlight {
        color:#3daee9;
      }
      .ColorScheme-ViewText {
        color:#31363b;
      }
      .ColorScheme-ViewBackground {
        color:#fcfcfc;
      }
      .ColorScheme-ViewHover {
        color:#93cee9;
      }
      .ColorScheme-ViewFocus{
        color:#3daee9;
      }
      .ColorScheme-ButtonText {
        color:#31363b;
      }
      .ColorScheme-ButtonBackground {
        color:#eff0f1;
      }
      .ColorScheme-ButtonHover {
        color:#93cee9;
      }
      .ColorScheme-ButtonFocus{
        color:#3daee9;
      }
      </style>
  </defs>
  <metadata
     id="metadata34">
    <rdf:RDF>
      <cc:Work
         rdf:about="">
        <dc:format>image/svg+xml</dc:format>
        <dc:type
           rdf:resource="http://purl.org/dc/dcmitype/StillImage" />
        <dc:title />
      </cc:Work>
    </rdf:RDF>
  </metadata>
  <sodipodi:namedview
     pagecolor="#3daee9"
     bordercolor="#666666"
     borderopacity="1"
     objecttolerance="10"
     gridtolerance="10"
     guidetolerance="10"
     inkscape:pageopacity="0.10196078"
     inkscape:pageshadow="2"
     inkscape:window-width="1860"
     inkscape:window-height="1049"
     id="namedview32"
     showgrid="true"
     inkscape:zoom="2.8284271"
     inkscape:cx="265.82858"
     inkscape:cy="-49.366137"
     inkscape:window-x="60"
     inkscape:window-y="0"
     inkscape:window-maximized="1"
     inkscape:current-layer="svg"
     borderlayer="true"
     showguides="true"
     inkscape:guide-bbox="true"
     inkscape:snap-bbox="true"
     inkscape:snap-nodes="true"
     inkscape:snap-bbox-edge-midpoints="true"
     inkscape:snap-global="true"
     inkscape:bbox-nodes="true">
    <inkscape:grid
       type="xygrid"
       id="grid3046"
       empspacing="5"
       visible="true"
       enabled="true"
       snapvisiblegridlinesonly="true"
       color="#0000ff"
       opacity="0.03921569"
       empcolor="#0000ff"
       empopacity="0.07843137" />
    <sodipodi:guide
       orientation="0,1"
       position="23,19"
       id="guide3820"
       inkscape:locked="false" />
    <sodipodi:guide
       orientation="0,1"
       position="24,3"
       id="guide3822"
       inkscape:locked="false" />
    <sodipodi:guide
       orientation="1,0"
       position="11,10"
       id="guide3824"
       inkscape:locked="false" />
    <sodipodi:guide
       orientation="0,1"
       position="21,11"
       id="guide3826"
       inkscape:locked="false" />
  </sodipodi:namedview>
  <g
     id="preferences-desktop-display-randr"
     transform="translate(0,-1)">
    <rect
       style="fill:#ffffff;fill-opacity:0;stroke:none"
       id="rect3832"
       width="22"
       height="22"
       x="1"
       y="1" />
    <path
       id="rect7235"
       style="fill:currentColor;fill-opacity:1;stroke:none"
       d="m 7.0000091,19.999986 10.0000179,0 0,1.000014 -10.0000179,0 z m 3.0000049,-1.999998 3.999994,0 0,1.999983 -3.999994,0 z M 2,4.0000055 2,17.999973 l 19.999999,0 0,-13.9999675 z m 0.9999988,0.999999 18.0000012,0 0,9.9999725 -18.0000012,0 z"
       class="ColorScheme-Text"
       inkscape:connector-curvature="0"
       sodipodi:nodetypes="cccccccccccccccccccc" />
    <path
       style="fill:currentColor;fill-opacity:1;stroke:none"
       d="m 4,10 4,4 -4,0 z"
       id="rect3018"
       inkscape:connector-curvature="0"
       sodipodi:nodetypes="cccc"
       class="ColorScheme-Text" />
    <path
       class="ColorScheme-Text"
       sodipodi:nodetypes="cccc"
       inkscape:connector-curvature="0"
       id="path3028"
       d="M 20,10 16,6 20,6 z"
       style="fill:currentColor;fill-opacity:1;stroke:none" />
  </g>
  <g
     id="preferences-desktop-notification"
     transform="translate(-1,39)">
    <rect
       y="1"
       x="1"
       height="22"
       width="22"
       id="rect3068"
       style="fill:#ffffff;fill-opacity:0;stroke:none" />
    <rect
       style="fill:#3daee9;fill-opacity:1;stroke:none"
       id="rect4130-82-0"
       width="15.999978"
       height="15.999987"
       x="4.000011"
       y="4"
       ry="7.999989" />
    <path
       inkscape:connector-curvature="0"
       style="fill:#fcfcfc;fill-opacity:1;stroke:none"
       d="m 11.202644,7.1999826 -0.0026,7.2000124 1.599998,0 0.0026,-7.2000124 z m 0.799999,7.9999894 c -0.441822,0 -0.799999,0.358171 -0.799999,0.799999 0,0.441827 0.358177,0.799999 0.799999,0.799999 0.441822,0 0.799999,-0.358172 0.799999,-0.799999 0,-0.441828 -0.358177,-0.799999 -0.799999,-0.799999 z"
       id="rect4142-6"
       sodipodi:nodetypes="cccccsssss" />
  </g>
  <g
     transform="translate(-22,94)"
     id="22-22-preferences-system-bluetooth">
    <rect
       y="0"
       x="66"
       height="22"
       width="22"
       id="rect4645"
       style="fill:none;stroke:none" />
    <path
       id="rect4163-9"
       d="m 76.998047,3 0,0.00195 0,7.039063 -3.292969,-3.2929692 -0.002,0.00195 C 73.347329,6.39404 72.707031,5.7539062 72.707031,5.7539062 L 72,6.4609375 76.544922,11.001953 72,15.542969 72.707031,16.25 c 0,0 0.640351,-0.640094 0.996094,-0.996094 l 0.002,0 L 77,11.960938 77,19 78,19 82,15 78,11 82,7 78,3 z M 78,4.4160156 80.585938,7.0019531 78,9.5878906 z m 0,8.0000004 2.585938,2.585937 L 78,17.587891 z"
       style="text-decoration:none;fill:currentColor;fill-opacity:1;fill-rule:nonzero;stroke:none;visibility:visible;display:inline;overflow:visible;enable-background:accumulate"
       inkscape:connector-curvature="0"
       sodipodi:nodetypes="cccccccccccccccccccccccccccc"
       class="ColorScheme-Text" />
  </g>
  <g
     id="22-22-preferences-system-bluetooth-activated"
     transform="translate(0,94)">
    <rect
       style="fill:none;stroke:none"
       id="rect4674"
       width="22"
       height="22"
       x="66"
       y="0" />
    <path
       inkscape:connector-curvature="0"
       style="text-decoration:none;fill:currentColor;fill-opacity:1;fill-rule:nonzero;stroke:none;visibility:visible;display:inline;overflow:visible;enable-background:accumulate"
       d="m 76.998047,3 0,0.00195 0,7.039063 -3.292969,-3.2929692 -0.002,0.00195 C 73.347329,6.39404 72.707031,5.7539062 72.707031,5.7539062 L 72,6.4609375 76.544922,11.001953 72,15.542969 72.707031,16.25 c 0,0 0.640351,-0.640094 0.996094,-0.996094 l 0.002,0 L 77,11.960938 77,19 78,19 82,15 78,11 82,7 78,3 76.998047,3 z M 78,4.4160156 80.585938,7.0019531 78,9.5878906 78,4.4160156 z M 67,10 a 1,1 0 0 0 -1,1 1,1 0 0 0 1,1 1,1 0 0 0 1,-1 1,1 0 0 0 -1,-1 z m 4,0 a 1,1 0 0 0 -1,1 1,1 0 0 0 1,1 1,1 0 0 0 1,-1 1,1 0 0 0 -1,-1 z m 12,0 a 1,1 0 0 0 -1,1 1,1 0 0 0 1,1 1,1 0 0 0 1,-1 1,1 0 0 0 -1,-1 z m 4,0 a 1,1 0 0 0 -1,1 1,1 0 0 0 1,1 1,1 0 0 0 1,-1 1,1 0 0 0 -1,-1 z m -9,2.416016 2.585938,2.585937 L 78,17.587891 78,12.416016 z"
       id="path4676"
       class="ColorScheme-Text" />
  </g>
  <g
     id="22-22-preferences-system-bluetooth-inactive"
     transform="translate(-44,94)">
    <rect
       style="fill:none;stroke:none"
       id="rect4162"
       width="22"
       height="22"
       x="66"
       y="0" />
    <path
       sodipodi:nodetypes="cccccccccccccccccccccccccccc"
       inkscape:connector-curvature="0"
       style="text-decoration:none;opacity:0.5;fill:currentColor;fill-opacity:1;fill-rule:nonzero;stroke:none;visibility:visible;display:inline;overflow:visible;enable-background:accumulate"
       d="m 76.998047,3 0,0.00195 0,7.039063 -3.292969,-3.2929692 -0.002,0.00195 C 73.347329,6.39404 72.707031,5.7539062 72.707031,5.7539062 L 72,6.4609375 76.544922,11.001953 72,15.542969 72.707031,16.25 c 0,0 0.640351,-0.640094 0.996094,-0.996094 l 0.002,0 L 77,11.960938 77,19 78,19 82,15 78,11 82,7 78,3 z M 78,4.4160156 80.585938,7.0019531 78,9.5878906 z m 0,8.0000004 2.585938,2.585937 L 78,17.587891 z"
       id="path4164"
       class="ColorScheme-Text" />
  </g>
  <g
     id="preferences-system-bluetooth"
     transform="translate(44,94)">
    <rect
       style="fill:none;stroke:none"
       id="rect4168"
       width="32"
       height="32"
       x="-5"
       y="22" />
    <path
       id="rect4331"
       d="m 11,26 0,0.410156 0,10.587891 L 5.0019531,31 4.296875,31.705078 10.589844,38 4.296875,44.294922 5.0019531,45 11,39.001953 11,50 12,50 12.002,50 18,44.001953 18,44 18,43.998047 12.001953,38 18,32.001953 18,32 18,31.998047 12.001953,26 12,26 11,26 z M 12,27.410156 16.587891,32 12,36.589844 12,27.410156 z m 0,12 L 16.587891,44 12,48.589844 12,39.410156 z"
       style="fill:currentColor;fill-opacity:1;stroke:none"
       inkscape:connector-curvature="0"
       class="ColorScheme-Text" />
  </g>
  <g
     id="preferences-system-bluetooth-activated"
     transform="translate(44,94)">
    <rect
       y="22"
       x="27"
       height="32"
       width="32"
       id="rect4422"
       style="fill:none;stroke:none" />
    <path
       id="path4424"
       d="m 43,26 0,0.410156 0,10.587891 L 37.001953,31 36.296875,31.705078 42.589844,38 36.296875,44.294922 37.001953,45 43,39.001953 43,50 44,50 44.002,50 50,44.001953 50,44 50,43.998047 44.001953,38 50,32.001953 50,32 50,31.998047 44.001953,26 44,26 43,26 z M 44,27.410156 48.587891,32 44,36.589844 44,27.410156 z M 30,37 a 1,1 0 0 0 -1,1 1,1 0 0 0 1,1 1,1 0 0 0 1,-1 1,1 0 0 0 -1,-1 z m 6,0 a 1,1 0 0 0 -1,1 1,1 0 0 0 1,1 1,1 0 0 0 1,-1 1,1 0 0 0 -1,-1 z m 14,0 a 1,1 0 0 0 -1,1 1,1 0 0 0 1,1 1,1 0 0 0 1,-1 1,1 0 0 0 -1,-1 z m 6,0 a 1,1 0 0 0 -1,1 1,1 0 0 0 1,1 1,1 0 0 0 1,-1 1,1 0 0 0 -1,-1 z M 44,39.410156 48.587891,44 44,48.589844 44,39.410156 z"
       style="fill:currentColor;fill-opacity:1;stroke:none"
       inkscape:connector-curvature="0"
       class="ColorScheme-Text" />
  </g>
  <g
     id="preferences-system-bluetooth-inactive"
     transform="translate(44,94)">
    <rect
       style="fill:none;stroke:none"
       id="rect4426"
       width="32"
       height="32"
       x="-37"
       y="22" />
    <path
       id="path4428"
       d="m -21,26 0,0.410156 0,10.587891 L -26.998047,31 -27.703125,31.705078 -21.410156,38 -27.703125,44.294922 -26.998047,45 -21,39.001953 -21,50 l 1,0 0.002,0 5.998,-5.998047 0,-0.002 0,-0.002 L -19.998047,38 -14,32.001953 -14,32 -14,31.998 -19.998047,26 -20,26 l -1,0 z m 1,1.410156 L -15.412109,32 -20,36.589844 l 0,-9.179688 z m 0,12 L -15.412109,44 -20,48.589844 l 0,-9.179688 z"
       style="opacity:0.5;fill:currentColor;fill-opacity:1;stroke:none"
       inkscape:connector-curvature="0"
       class="ColorScheme-Text" />
  </g>
  <g
     id="preferences-system-bluetooth-battery"
     transform="translate(44,126)">
    <rect
       style="fill:none;stroke:none"
       id="rect4168-3"
       width="32"
       height="32"
       x="-5"
       y="22" />
    <path
       id="rect4331-5"
       d="m 11,26 v 0.410156 10.587891 L 5.0019531,31 4.296875,31.705078 10.589844,38 4.296875,44.294922 5.0019531,45 11,39.001953 V 50 h 1 0.002 L 18,44.001953 V 44 43.998 L 12.001953,38 18,32.001953 V 32 31.998 L 12.001953,26 H 12 Z M 12,27.410156 16.587891,32 12,36.589844 Z m 0,12 L 16.587891,44 12,48.589844 Z"
       style="fill:currentColor;fill-opacity:1;stroke:none"
       inkscape:connector-curvature="0"
       class="ColorScheme-Text" />
  </g>
</svg>
